public/assets/icons/home/invoice.svg

<svg xmlns="http://www.w3.org/2000/svg"
     viewBox="350 165 210 270" preserveAspectRatio="xMidYMid meet" version="1.0">
    <defs>
        <clipPath id="e39cbfff9a">
            <path d="M 362 173.539062 L 549 173.539062 L 549 426.289062 L 362 426.289062 Z M 362 173.539062 "
                  clip-rule="nonzero"/>
        </clipPath>
    </defs>
    <path fill="#225378"
          d="M 511.6875 385.144531 L 400.125 385.144531 C 397.550781 385.144531 395.441406 387.253906 395.441406 389.828125 C 395.441406 392.402344 397.550781 394.511719 400.125 394.511719 L 511.6875 394.511719 C 514.265625 394.511719 516.371094 392.402344 516.371094 389.828125 C 516.371094 387.253906 514.265625 385.144531 511.6875 385.144531 Z M 511.6875 385.144531 "
          fill-opacity="1" fill-rule="nonzero"/>
    <path fill="#225378"
          d="M 510.84375 351.9375 L 400.125 351.9375 C 397.550781 351.9375 395.441406 354.046875 395.441406 356.621094 C 395.441406 359.199219 397.550781 361.304688 400.125 361.304688 L 510.84375 361.304688 C 513.421875 361.304688 515.527344 359.199219 515.527344 356.621094 C 515.527344 354.046875 513.421875 351.9375 510.84375 351.9375 Z M 510.84375 351.9375 "
          fill-opacity="1" fill-rule="nonzero"/>
    <path fill="#225378"
          d="M 510.84375 318.730469 L 400.125 318.730469 C 397.550781 318.730469 395.441406 320.839844 395.441406 323.414062 C 395.441406 325.992188 397.550781 328.097656 400.125 328.097656 L 510.84375 328.097656 C 513.421875 328.097656 515.527344 325.992188 515.527344 323.414062 C 515.527344 320.839844 513.421875 318.730469 510.84375 318.730469 Z M 510.84375 318.730469 "
          fill-opacity="1" fill-rule="nonzero"/>
    <path fill="#225378"
          d="M 510.84375 285.523438 L 400.125 285.523438 C 397.550781 285.523438 395.441406 287.632812 395.441406 290.207031 C 395.441406 292.785156 397.550781 294.890625 400.125 294.890625 L 510.84375 294.890625 C 513.421875 294.890625 515.527344 292.785156 515.527344 290.207031 C 515.527344 287.632812 513.421875 285.523438 510.84375 285.523438 Z M 510.84375 285.523438 "
          fill-opacity="1" fill-rule="nonzero"/>
    <path fill="#225378"
          d="M 455.484375 261.683594 L 510.84375 261.683594 C 513.421875 261.683594 515.527344 259.578125 515.527344 257 C 515.527344 254.425781 513.421875 252.316406 510.84375 252.316406 L 455.484375 252.316406 C 452.910156 252.316406 450.800781 254.425781 450.800781 257 C 450.800781 259.578125 452.910156 261.683594 455.484375 261.683594 Z M 455.484375 261.683594 "
          fill-opacity="1" fill-rule="nonzero"/>
    <path fill="#225378"
          d="M 418.015625 257.84375 L 408.648438 257.84375 C 406.074219 257.84375 403.964844 255.738281 403.964844 253.160156 C 403.964844 250.585938 401.859375 248.476562 399.28125 248.476562 C 396.707031 248.476562 394.597656 250.585938 394.597656 253.160156 C 394.597656 260.890625 400.921875 267.210938 408.648438 267.210938 L 408.648438 269.554688 C 408.648438 272.128906 410.757812 274.238281 413.332031 274.238281 C 415.910156 274.238281 418.015625 272.128906 418.015625 269.554688 L 418.015625 267.210938 C 425.746094 267.210938 432.066406 260.890625 432.066406 253.160156 L 432.066406 250.820312 C 432.066406 243.089844 425.746094 236.769531 418.015625 236.769531 L 408.648438 236.769531 C 406.074219 236.769531 403.964844 234.660156 403.964844 232.085938 L 403.964844 229.742188 C 403.964844 227.167969 406.074219 225.058594 408.648438 225.058594 L 418.015625 225.058594 C 420.59375 225.058594 422.699219 227.167969 422.699219 229.742188 C 422.699219 232.320312 424.808594 234.425781 427.382812 234.425781 C 429.960938 234.425781 432.066406 232.320312 432.066406 229.742188 C 432.066406 222.015625 425.746094 215.691406 418.015625 215.691406 L 418.015625 213.351562 C 418.015625 210.773438 415.910156 208.667969 413.332031 208.667969 C 410.757812 208.667969 408.648438 210.773438 408.648438 213.351562 L 408.648438 215.691406 C 400.921875 215.691406 394.597656 222.015625 394.597656 229.742188 L 394.597656 232.085938 C 394.597656 239.8125 400.921875 246.136719 408.648438 246.136719 L 418.015625 246.136719 C 420.59375 246.136719 422.699219 248.242188 422.699219 250.820312 L 422.699219 253.160156 C 422.699219 255.738281 420.59375 257.84375 418.015625 257.84375 Z M 418.015625 257.84375 "
          fill-opacity="1" fill-rule="nonzero"/>
    <g clip-path="url(#e39cbfff9a)">
        <path fill="#225378"
              d="M 548.359375 232.226562 C 548.128906 231.710938 547.800781 231.242188 547.425781 230.820312 C 547.425781 230.820312 547.425781 230.726562 547.378906 230.726562 L 491.597656 174.945312 C 491.175781 174.523438 490.660156 174.148438 490.050781 173.914062 C 489.488281 173.679688 488.878906 173.539062 488.269531 173.539062 L 376.285156 173.539062 C 368.558594 173.539062 362.234375 179.863281 362.234375 187.589844 L 362.234375 412.402344 C 362.234375 420.132812 368.558594 426.453125 376.285156 426.453125 L 534.683594 426.453125 C 542.414062 426.453125 548.734375 420.132812 548.734375 412.402344 L 548.734375 234.050781 C 548.734375 233.441406 548.59375 232.835938 548.359375 232.226562 Z M 492.953125 189.511719 L 532.765625 229.320312 L 497.636719 229.320312 C 495.0625 229.320312 492.953125 227.214844 492.953125 224.636719 Z M 534.683594 417.085938 L 376.285156 417.085938 C 373.710938 417.085938 371.601562 414.980469 371.601562 412.402344 L 371.601562 187.589844 C 371.601562 185.015625 373.710938 182.90625 376.285156 182.90625 L 483.585938 182.90625 L 483.585938 224.636719 C 483.585938 232.367188 489.910156 238.6875 497.636719 238.6875 L 539.367188 238.6875 L 539.367188 412.402344 C 539.367188 414.980469 537.261719 417.085938 534.683594 417.085938 Z M 534.683594 417.085938 "
              fill-opacity="1" fill-rule="nonzero"/>
    </g>
</svg>

<svg xmlns="http://www.w3.org/2000/svg" version="1.0" viewBox="350 165 210 270">
    <defs>
        <clipPath id="a">
            <path d="M362 173.54h187v252.75H362Zm0 0"/>
        </clipPath>
    </defs>
    <path fill="#225378" d="M511.69 385.14H400.13a4.7 4.7 0 0 0-4.69 4.69 4.7 4.7 0 0 0 4.69 4.68h111.56a4.7 4.7 0 0 0 4.68-4.68 4.7 4.7 0 0 0-4.68-4.69ZM510.84 351.94H400.13a4.7 4.7 0 0 0-4.69 4.68 4.7 4.7 0 0 0 4.69 4.68h110.71a4.7 4.7 0 0 0 0-9.36ZM510.84 318.73H400.13a4.7 4.7 0 0 0-4.69 4.68 4.7 4.7 0 0 0 4.69 4.69h110.71a4.7 4.7 0 0 0 0-9.37ZM510.84 285.52H400.13a4.7 4.7 0 0 0-4.69 4.69 4.7 4.7 0 0 0 4.69 4.68h110.71a4.7 4.7 0 0 0 0-9.37ZM455.48 261.68h55.36a4.7 4.7 0 0 0 0-9.36h-55.36a4.7 4.7 0 0 0-4.68 4.68 4.7 4.7 0 0 0 4.68 4.68ZM418.02 257.84h-9.37a4.7 4.7 0 0 1-4.69-4.68 4.7 4.7 0 0 0-4.68-4.68 4.7 4.7 0 0 0-4.68 4.68 14.1 14.1 0 0 0 14.05 14.05v2.34a4.7 4.7 0 0 0 4.68 4.69 4.7 4.7 0 0 0 4.69-4.69v-2.34c7.73 0 14.05-6.32 14.05-14.05v-2.34c0-7.73-6.32-14.05-14.05-14.05h-9.37a4.7 4.7 0 0 1-4.69-4.68v-2.35a4.7 4.7 0 0 1 4.69-4.68h9.37a4.7 4.7 0 0 1 4.68 4.68 4.7 4.7 0 0 0 9.37 0 14.1 14.1 0 0 0-14.05-14.05v-2.34a4.7 4.7 0 0 0-9.37 0v2.34a14.1 14.1 0 0 0-14.05 14.05v2.35a14.1 14.1 0 0 0 14.05 14.05h9.37a4.7 4.7 0 0 1 4.68 4.68v2.34a4.7 4.7 0 0 1-4.68 4.68Zm0 0"/>
    <g clip-path="url(#a)">
        <path fill="#225378" d="M548.36 232.23a5.55 5.55 0 0 0-.93-1.41s0-.1-.05-.1l-55.78-55.77c-.42-.43-.94-.8-1.55-1.04a4.67 4.67 0 0 0-1.78-.37H376.29a14.1 14.1 0 0 0-14.06 14.05V412.4a14.1 14.1 0 0 0 14.06 14.05h158.4c7.72 0 14.04-6.32 14.04-14.05V234.05c0-.6-.14-1.21-.37-1.82Zm-55.4-42.72 39.8 39.81h-35.12a4.7 4.7 0 0 1-4.69-4.68Zm41.72 227.58h-158.4a4.7 4.7 0 0 1-4.68-4.69V187.6a4.7 4.7 0 0 1 4.69-4.68h107.3v41.73a14.1 14.1 0 0 0 14.05 14.05h41.73V412.4a4.7 4.7 0 0 1-4.69 4.69Zm0 0"/>
    </g>
</svg>
